X: 26870
T: Miners Of Wicklow, The
R: jig
M: 6/8
K: Dmajor
HA2G|:F (3.A.c.A ABc|dcB AGF|GBG ~E3|FAF ~D3|
F (3.A.c.A ABc|dcB AGF|Bcd efg|1 fdd d2A:|2 fdd d2g||
|:fdd fdd|c (3.A.c.A efg|fdd def|gfg efg|faf gbg|
faf ecA|1 Bcd efg|fdd d2e:|2 Bcd ecA|dAG FED||

